symbolic/22x22/apps/sftpclient.svg

<svg xmlns="http://www.w3.org/2000/svg" width="22" height="22" version="1">
 <path style="opacity:0.2" d="m 7.5,5.5 a 5,5 0 0 0 -5,5 5,5 0 0 0 0.025391,0.459961 A 4.5,4.5 0 0 0 0,15 4.5,4.5 0 0 0 4.5,19.5 h 11 a 4,4 0 0 0 4,-4 A 4,4 0 0 0 16.253906,11.574219 2.5,2.5 0 0 0 16.5,10.5 2.5,2.5 0 0 0 14,8 2.5,2.5 0 0 0 12.19043,8.779297 5,5 0 0 0 7.5,5.5 Z"/>
 <path style="fill:#27adeb" d="M 15.75,2 A 4.25,4.25 0 0 0 11.820312,4.640625 2.25,2.25 0 0 0 10.25,4 2.25,2.25 0 0 0 8,6.25 2.25,2.25 0 0 0 10.25,8.5 2.25,2.25 0 0 0 11.820312,7.8613281 4.25,4.25 0 0 0 14.501953,10.3125 3.75,3.75 0 0 0 18.25,14 3.75,3.75 0 0 0 22,10.25 3.75,3.75 0 0 0 19.943359,6.9082031 4.25,4.25 0 0 0 20,6.25 4.25,4.25 0 0 0 15.75,2 Z"/>
 <path style="opacity:0.2;fill:#ffffff" d="M 15.75,2 A 4.25,4.25 0 0 0 11.820312,4.640625 2.25,2.25 0 0 0 10.25,4 2.25,2.25 0 0 0 8,6.25 2.25,2.25 0 0 0 8.015625,6.5058594 2.25,2.25 0 0 1 10.25,4.5 2.25,2.25 0 0 1 11.820312,5.140625 4.25,4.25 0 0 1 15.75,2.5 4.25,4.25 0 0 1 19.988281,6.5195312 4.25,4.25 0 0 0 20,6.25 4.25,4.25 0 0 0 15.75,2 Z m 4.244141,4.9375 A 4.25,4.25 0 0 1 19.943359,7.4082031 3.75,3.75 0 0 1 21.988281,10.529297 3.75,3.75 0 0 0 22,10.25 3.75,3.75 0 0 0 19.994141,6.9375 Z"/>
 <path style="fill:#1f83b3" d="m 7.5,5 a 5,5 0 0 0 -5,5 5,5 0 0 0 0.025391,0.460938 A 4.5,4.5 0 0 0 0,14.5 4.5,4.5 0 0 0 4.5,19 h 11 a 4,4 0 0 0 4,-4 A 4,4 0 0 0 15.941406,11.025391 2.5,2.5 0 0 0 16,10.5 2.5,2.5 0 0 0 13.5,8 2.5,2.5 0 0 0 12.216797,8.3574219 5,5 0 0 0 7.5,5 Z"/>
 <rect style="fill:#58e1f1" width="7" height="2" x="15" y="13" rx=".5" ry=".5"/>
 <circle style="fill:#3f3f3f" cx="21" cy="14" r=".5"/>
 <rect style="fill:#58e1f1" width="7" height="2" x="15" y="15" rx=".5" ry=".5"/>
 <circle style="fill:#3f3f3f" cx="21" cy="16" r=".5"/>
 <rect style="fill:#58e1f1" width="7" height="2" x="15" y="17" rx=".5" ry=".5"/>
 <circle style="fill:#3f3f3f" cx="21" cy="18" r=".5"/>
 <path style="opacity:0.2" d="m 5,11.5 v 4 h 1 v -1 h 1 v -1 H 6 v -1 h 1 v -1 z m 3,0 v 1 h 1 v 3 h 1 v -3 h 1 v -1 z m 4,0 v 4 h 1 v -1 c 0,1.5e-4 1.999989,0 2,-1.5 -1.1e-5,-1.5 -2,-1.5 -2,-1.5 z m -8.9550781,1 c -0.31562,0 -0.5697495,0.0669 -0.7597657,0.201172 C 2.09514,12.835448 2,13.036136 2,13.304688 c 0,0.162544 0.024643,0.298663 0.076172,0.408203 0.05153,0.106007 0.132001,0.199605 0.2382812,0.277343 0.1062802,0.07421 0.2400454,0.150777 0.4042969,0.228516 0.170692,0.07774 0.2964391,0.139983 0.3769531,0.189453 0.080516,0.04947 0.1317534,0.09394 0.1542969,0.132813 0.025765,0.03887 0.041016,0.08335 0.041016,0.132812 0,0.0742 -0.030605,0.133752 -0.091797,0.179688 -0.057971,0.04593 -0.1590743,0.06836 -0.3007813,0.06836 -0.1256035,0 -0.2693425,-0.02242 -0.4335937,-0.06836 -0.1642533,-0.04594 -0.3192305,-0.103157 -0.4609376,-0.173828 v 0.65039 c 0.1320452,0.06007 0.2663924,0.10417 0.3984376,0.128906 C 2.5343891,15.487253 2.6914255,15.5 2.875,15.5 3.2485915,15.5 3.5280482,15.423055 3.7148438,15.267578 3.9048592,15.108567 4,14.881177 4,14.587891 4,14.414746 3.9693966,14.275929 3.9082031,14.169922 3.8502321,14.060382 3.7657505,13.96911 3.65625,13.898438 3.546749,13.824234 3.416994,13.754638 3.265625,13.6875 3.111036,13.616829 2.9945775,13.559981 2.9140625,13.517578 c -0.077293,-0.0424 -0.1311692,-0.08186 -0.1601563,-0.117187 -0.025763,-0.03887 -0.039063,-0.08102 -0.039062,-0.126953 0,-0.12721 0.1057993,-0.189454 0.3183593,-0.189454 0.119163,0 0.2375737,0.02009 0.3535157,0.0625 0.1159414,0.03887 0.238363,0.08837 0.3671874,0.148438 l 0.2167969,-0.56836 C 3.8128936,12.645291 3.6598672,12.58807 3.5117188,12.552734 3.3635708,12.517398 3.2091729,12.5 3.0449219,12.5 Z M 13,12.5 h 0.365234 C 13.788514,12.5 14,12.66319 14,12.990234 14,13.169479 13.93287,13.301053 13.798828,13.382812 13.668317,13.46143 13.491374,13.5 13.265625,13.5 H 13 Z"/>
 <path style="fill:#ffffff" d="m 5,11 v 4 H 6 V 14 H 7 V 13 H 6 v -1 h 1 v -1 z m 3,0 v 1 h 1 v 3 h 1 v -3 h 1 v -1 z m 4,0 v 4 h 1 v -1 c 0,1.5e-4 1.999989,0 2,-1.5 C 14.999989,11 13,11 13,11 Z M 3.0449219,12 C 2.7293019,12 2.4751724,12.0669 2.2851562,12.201172 2.09514,12.335448 2,12.536136 2,12.804688 c 0,0.162544 0.024643,0.298663 0.076172,0.408203 0.05153,0.106007 0.132001,0.199605 0.2382812,0.277343 0.1062802,0.07421 0.2400454,0.150777 0.4042969,0.228516 0.170692,0.07774 0.2964391,0.139983 0.3769531,0.189453 0.080516,0.04947 0.1317534,0.09394 0.1542969,0.132813 0.025765,0.03887 0.041016,0.08335 0.041016,0.132812 0,0.0742 -0.030605,0.133752 -0.091797,0.179688 -0.057971,0.04593 -0.1590743,0.06836 -0.3007813,0.06836 -0.1256035,0 -0.2693425,-0.02242 -0.4335937,-0.06836 -0.1642533,-0.04594 -0.3192305,-0.103157 -0.4609376,-0.173828 v 0.65039 c 0.1320452,0.06007 0.2663924,0.10417 0.3984376,0.128906 C 2.5343891,14.987253 2.6914255,15 2.875,15 3.2485915,15 3.5280482,14.923055 3.7148438,14.767578 3.9048592,14.608567 4,14.381177 4,14.087891 4,13.914746 3.9693966,13.775929 3.9082031,13.669922 3.8502321,13.560382 3.7657505,13.46911 3.65625,13.398438 3.546749,13.324234 3.416994,13.254638 3.265625,13.1875 3.111036,13.116829 2.9945775,13.059981 2.9140625,13.017578 c -0.077293,-0.0424 -0.1311692,-0.08186 -0.1601563,-0.117187 -0.025763,-0.03887 -0.039063,-0.08102 -0.039062,-0.126953 0,-0.12721 0.1057993,-0.189454 0.3183593,-0.189454 0.119163,0 0.2375737,0.02009 0.3535157,0.0625 0.1159414,0.03887 0.238363,0.08837 0.3671874,0.148438 l 0.2167969,-0.56836 C 3.8128936,12.145291 3.6598672,12.08807 3.5117188,12.052734 3.3635708,12.017398 3.2091729,12 3.0449219,12 Z M 13,12 h 0.365234 C 13.788514,12 14,12.16319 14,12.490234 14,12.669479 13.93287,12.801053 13.798828,12.882812 13.668317,12.96143 13.491374,13 13.265625,13 H 13 Z"/>
 <path style="opacity:0.2" d="M 15,14.5 V 15 c 0,0.277 0.223,0.5 0.5,0.5 h 6 c 0.277,0 0.5,-0.223 0.5,-0.5 v -0.5 c 0,0.277 -0.223,0.5 -0.5,0.5 h -6 C 15.223,15 15,14.777 15,14.5 Z m 0,2 V 17 c 0,0.277 0.223,0.5 0.5,0.5 h 6 c 0.277,0 0.5,-0.223 0.5,-0.5 v -0.5 c 0,0.277 -0.223,0.5 -0.5,0.5 h -6 C 15.223,17 15,16.777 15,16.5 Z m 0,2 V 19 c 0,0.277 0.223,0.5 0.5,0.5 h 6 c 0.277,0 0.5,-0.223 0.5,-0.5 v -0.5 c 0,0.277 -0.223,0.5 -0.5,0.5 h -6 C 15.223,19 15,18.777 15,18.5 Z"/>
 <path style="opacity:0.2;fill:#ffffff" d="M 15.5,13 C 15.223,13 15,13.223 15,13.5 V 14 c 0,-0.277 0.223,-0.5 0.5,-0.5 h 6 c 0.277,0 0.5,0.223 0.5,0.5 V 13.5 C 22,13.223 21.777,13 21.5,13 Z"/>
</svg>

<svg xmlns="http://www.w3.org/2000/svg" width="22" height="22" version="1"><path style="opacity:.2" d="M7.5 5.5a5 5 0 0 0-5 5 5 5 0 0 0 .025.46A4.5 4.5 0 0 0 0 15a4.5 4.5 0 0 0 4.5 4.5h11a4 4 0 0 0 4-4 4 4 0 0 0-3.246-3.926A2.5 2.5 0 0 0 16.5 10.5 2.5 2.5 0 0 0 14 8a2.5 2.5 0 0 0-1.81.78A5 5 0 0 0 7.5 5.5z"/><path style="fill:#27adeb" d="M15.75 2a4.25 4.25 0 0 0-3.93 2.64A2.25 2.25 0 0 0 10.25 4 2.25 2.25 0 0 0 8 6.25a2.25 2.25 0 0 0 2.25 2.25 2.25 2.25 0 0 0 1.57-.639 4.25 4.25 0 0 0 2.682 2.452A3.75 3.75 0 0 0 18.25 14 3.75 3.75 0 0 0 22 10.25a3.75 3.75 0 0 0-2.057-3.342A4.25 4.25 0 0 0 20 6.25 4.25 4.25 0 0 0 15.75 2z"/><path style="opacity:.2;fill:#fff" d="M15.75 2a4.25 4.25 0 0 0-3.93 2.64A2.25 2.25 0 0 0 10.25 4 2.25 2.25 0 0 0 8 6.25a2.25 2.25 0 0 0 .016.256A2.25 2.25 0 0 1 10.25 4.5a2.25 2.25 0 0 1 1.57.64 4.25 4.25 0 0 1 3.93-2.64 4.25 4.25 0 0 1 4.238 4.02A4.25 4.25 0 0 0 20 6.25 4.25 4.25 0 0 0 15.75 2zm4.244 4.938a4.25 4.25 0 0 1-.05.47 3.75 3.75 0 0 1 2.044 3.121A3.75 3.75 0 0 0 22 10.25a3.75 3.75 0 0 0-2.006-3.313z"/><path style="fill:#1f83b3" d="M7.5 5a5 5 0 0 0-5 5 5 5 0 0 0 .025.46A4.5 4.5 0 0 0 0 14.5 4.5 4.5 0 0 0 4.5 19h11a4 4 0 0 0 4-4 4 4 0 0 0-3.559-3.975A2.5 2.5 0 0 0 16 10.5 2.5 2.5 0 0 0 13.5 8a2.5 2.5 0 0 0-1.283.357A5 5 0 0 0 7.5 5z"/><rect style="fill:#58e1f1" width="7" height="2" x="15" y="13" rx=".5" ry=".5"/><circle style="fill:#3f3f3f" cx="21" cy="14" r=".5"/><rect style="fill:#58e1f1" width="7" height="2" x="15" y="15" rx=".5" ry=".5"/><circle style="fill:#3f3f3f" cx="21" cy="16" r=".5"/><rect style="fill:#58e1f1" width="7" height="2" x="15" y="17" rx=".5" ry=".5"/><circle style="fill:#3f3f3f" cx="21" cy="18" r=".5"/><path style="opacity:.2" d="M5 11.5v4h1v-1h1v-1H6v-1h1v-1zm3 0v1h1v3h1v-3h1v-1zm4 0v4h1v-1s2 0 2-1.5-2-1.5-2-1.5zm-8.955 1c-.316 0-.57.067-.76.201-.19.134-.285.335-.285.604 0 .162.025.298.076.408.052.106.132.2.238.277.107.074.24.151.405.229.17.077.296.14.377.19.08.049.131.093.154.132a.237.237 0 0 1 .041.133c0 .074-.03.134-.092.18-.058.045-.159.068-.3.068a1.63 1.63 0 0 1-.434-.068 2.606 2.606 0 0 1-.461-.174v.65c.132.06.266.104.398.129.132.028.29.041.473.041.374 0 .653-.077.84-.232.19-.16.285-.387.285-.68a.83.83 0 0 0-.092-.418.724.724 0 0 0-.252-.272 2.513 2.513 0 0 0-.39-.21 7.32 7.32 0 0 1-.352-.17.565.565 0 0 1-.16-.118.225.225 0 0 1-.04-.127c0-.127.107-.189.32-.189.118 0 .237.02.353.062.116.04.238.089.367.149l.217-.568a2.035 2.035 0 0 0-.46-.174 1.999 1.999 0 0 0-.466-.053zm9.955 0h.365c.424 0 .635.163.635.49 0 .18-.067.311-.201.393-.13.078-.308.117-.533.117H13z"/><path style="fill:#fff" d="M5 11v4h1v-1h1v-1H6v-1h1v-1zm3 0v1h1v3h1v-3h1v-1zm4 0v4h1v-1s2 0 2-1.5-2-1.5-2-1.5zm-8.955 1c-.316 0-.57.067-.76.201-.19.134-.285.335-.285.604 0 .162.025.298.076.408.052.106.132.2.238.277.107.074.24.151.405.229.17.077.296.14.377.19.08.049.131.093.154.132a.237.237 0 0 1 .041.133c0 .074-.03.134-.092.18-.058.045-.159.068-.3.068a1.63 1.63 0 0 1-.434-.068 2.606 2.606 0 0 1-.461-.174v.65c.132.06.266.104.398.129.132.028.29.041.473.041.374 0 .653-.077.84-.232.19-.16.285-.387.285-.68a.83.83 0 0 0-.092-.418.724.724 0 0 0-.252-.272 2.513 2.513 0 0 0-.39-.21 7.32 7.32 0 0 1-.352-.17.565.565 0 0 1-.16-.118.225.225 0 0 1-.04-.127c0-.127.107-.189.32-.189.118 0 .237.02.353.062.116.04.238.089.367.149l.217-.568a2.035 2.035 0 0 0-.46-.174A1.999 1.999 0 0 0 3.046 12zM13 12h.365c.424 0 .635.163.635.49 0 .18-.067.311-.201.393-.13.078-.308.117-.533.117H13z"/><path style="opacity:.2" d="M15 14.5v.5c0 .277.223.5.5.5h6c.277 0 .5-.223.5-.5v-.5c0 .277-.223.5-.5.5h-6a.499.499 0 0 1-.5-.5zm0 2v.5c0 .277.223.5.5.5h6c.277 0 .5-.223.5-.5v-.5c0 .277-.223.5-.5.5h-6a.499.499 0 0 1-.5-.5zm0 2v.5c0 .277.223.5.5.5h6c.277 0 .5-.223.5-.5v-.5c0 .277-.223.5-.5.5h-6a.499.499 0 0 1-.5-.5z"/><path style="opacity:.2;fill:#fff" d="M15.5 13c-.277 0-.5.223-.5.5v.5c0-.277.223-.5.5-.5h6c.277 0 .5.223.5.5v-.5c0-.277-.223-.5-.5-.5z"/></svg>
